X:1
T:Cara, 76.76
T:Cara, 76.76
T:Uzziah Christopher Burnap, 1898
T:Public Domain Courtesy of the Cyber Hymnal™
C:Uzziah Christopher Burnap, 1898
Z:Public Domain
Z:Courtesy of the Cyber Hymnal™
%%score ( 1 2 ) ( 3 4 )
L:1/8
Q:1/4=110
M:4/4
K:Eb
V:1 treble 
V:2 treble 
V:3 bass 
V:4 bass 
V:1
 [EG]2 | [Ec]2 [EB]2 D2 [B,E]2 | [EG]4 [EF]2 [EF]2 | [EF]2 [EG]2 A2 [DB]2 | [EG]6 [EB]2 | %5
 [Ee]2 e2 [Gd]2 G2 | c4 [GB]2 ([EG][DF]) | [CE]2 (ED) C2 F2 | E6 |] %9
V:2
 x2 | x4 D2 x2 | x8 | x4 (EC) x2 | x8 | x6 (ED) | (CDEF) x4 | x2 =B,2 C2 (CD) | E6 |] %9
V:3
 [E,B,]2 | [B,,G,]2 [E,G,]2 [F,A,]2 [G,B,]2 | [G,=B,]4 [A,C]2 [=A,C]2 | %3
 B,2 [B,,B,]2 [B,,B,]2 [B,,B,]2 | [E,B,]6 [E,G,]2 | [C,G,]2 [E,C]2 [G,C]2 [G,B,]2 | %6
 (A,B,CD) [G,E]2 [=B,,G,]2 | [C,G,]2 (G,F,) [A,,E,]2 [B,,A,]2 | [E,G,]6 |] %9
V:4
 x2 | x8 | x8 | B,2 x6 | x8 | x8 | A,4 x4 | x2 G,,2 x4 | x6 |] %9

